src/assets/img/heart-black.svg

<svg xmlns="http://www.w3.org/2000/svg" role="img" width="30" height="28" viewBox="0 0 30 26"><title>Love</title><path d="M25.964 4.036V0h-8.657v4.036h-4.614V0H4.036v4.036H0v8.657h4.036v4.614h4.62v4.039h4.037v4.618h4.614v-4.618h4.039v-4.039h4.618v-4.614H30V4.036z"/></svg>

<svg width="30" height="28" viewBox="0 0 30 26" role="img" xmlns="http://www.w3.org/2000/svg">
  <title>Love</title>
  <path d="M 25.964 4.036 L 25.964 0 L 17.307 0 L 17.307 4.036 L 12.693 4.036 L 12.693 0 L 4.036 0 L 4.036 4.036 L 0 4.036 L 0 12.693 L 4.036 12.693 L 4.036 17.307 L 8.656 17.307 L 8.656 21.346 L 12.693 21.346 L 12.693 25.964 L 17.307 25.964 L 17.307 21.346 L 21.346 21.346 L 21.346 17.307 L 25.964 17.307 L 25.964 12.693 L 30 12.693 L 30 4.036 Z" />
</svg>
